X:1
T:He Has Come
T:He Has Come
T:John Robson Sweney
T:Ellin J. Toy Knowles, 1882
T:Public Domain Courtesy of the Cyber Hymnal™
T:Public Domain Courtesy of the Cyber Hymnal™
C:John Robson Sweney
Z:Public Domain
Z:Courtesy of the Cyber Hymnal™
%%score ( 1 2 ) ( 3 4 )
L:1/8
Q:1/4=95
M:4/4
K:D
V:1 treble 
V:2 treble 
V:3 bass 
V:4 bass 
V:1
 [FA]>[EG] | [DF]2 [DF]>[DF] [DF]2 [DF]>[EG] | [FA]2 [FA]>[FA] [FA]2 [FA]>[FA] | %3
w: 1.~He has|come! He has come! My Re-|deem- er has come! He has|
w: 2.~He has|come! He has come! M- y|love and my Lord! Ev- ery|
w: 3.~He has|come! He has come! O ~|hap- pi- est heart! He has|
w: 4.~He has|come to a- bide: An- d|ho- ly must be Th- e|
 [GB]2 [Gc]>[Ge] [Fd]2 [FA]>[DF] | [CE]2 [EG]>[DF] [CE]2 ([CA]>[CG]) | [DF]2 [DF]>[FA] [Fd]2 d>c | %6
w: tak- en my heart As His|own chos- en home. At *|last I have giv- en The|
w: thought of my be- ing Is|swayed by His Word. He~has *|come, and He reigns In the|
w: giv- en His word That He|will not de- part. What *|trou- ble can en- ter, What|
w: place where my Lord Deigns to|ban- quet with me. And *|this is my pray- er: “Lord,|
 B2 F>F B2 [DB]>[FA] | [E^G]2 [Ed]>[Ed] (dc) ([FB][FA]) | [EA]2 [D^G]>[DG] (A=G) ||"^Refrain" F>A | %10
w: wel- come He sought; He has|come, and His com- * ing~All *|glad- ness has brought. *||
w: realm of my soul, And His|scep- ter is love! * Oh, *|bles- sèd con- trol! *|He has|
w: e- vil can come To the|heart where the God * Of~all *|peace has His home? *||
w: since Thou art come, Make meet|for Thy pre- sence * My *|heart as Thy home!” *||
 (z2 F>)A x6 | (z2 [Fd]>)[Ac] x6 | [Ac]<[GB] [Gd]>[GB] [FA]2 [DF]>D | [CE]6 (FE) | %14
w: ||||
w: * come!|* He|has come! My Re- deem- er, my|Re- deem- *|
w: ||||
w: ||||
 D2 D>[DF] [FA]3 [FA] | [GB]2 [GB]>[Gc] !fermata![Fd]2 [DA][EG] | [DF]4 [DF]2 [CE]2 | D6 |] %18
w: ||||
w: er has come! His pre-|sence is Heav’n, My heart is|His home! My|Re-|
w: ||||
w: ||||
V:2
 x2 | x8 | x8 | x8 | x8 | x6 d>c | B2 F>F B2 x2 | x4 E2 x2 | x4 C2 || x2 | (d6 F>F F2) | %11
 (d6 F>F F2) | x15/2 D/ | x6 C2 | D2 D3/2 x9/2 | x8 | x8 | D6 |] %18
V:3
 [D,D]>[D,A,] | [D,A,]2 [D,A,]>[D,A,] [D,A,]2 [D,A,]>[D,A,] | %2
w: ~ ~|~ ~ ~ ~ ~ ~|
 [D,D]2 [D,D]>[D,D] [D,D]2 [D,D]>[D,D] | [G,D]2 [E,A,]>[A,,A,] [D,A,]2 [D,D]>[D,A,] | %4
w: ~ ~ ~ ~ ~ ~|~ ~ ~ ~ ~ ~|
 [A,,A,]2 [A,,A,]>[A,,A,] [A,,A,]2 ([A,,A,]>[A,,A,]) | [D,A,]2 [D,A,]>[D,A,] [D,A,]2 D>C | %6
w: ~ ~ ~ ~ ~ *|~ ~ ~ ~ ~ ~|
 B,2 F,>F, B,2 [B,,F,]>[B,,B,] | [E,B,]2 [^G,B,]>[G,B,] A,2 ([D,A,][D,D]) | %8
w: ~ ~ ~ ~ ~ ~|~ ~ ~ ~ ~ *|
 [E,C]2 [E,B,]>[E,B,] [A,,A,]2 || z2 | z2 [D,A,]>[D,A,] [D,A,]2 z2 x2 | %11
w: ~ ~ ~ ~||He has come!|
 z2 [D,A,]>[D,A,] [D,A,]2 [D,A,]>[F,D] x2 | [G,D]<[G,D] [G,B,]>[G,D] [D,D]<[D,D] [D,A,]>[F,A,] | %13
w: He has come! My Re-|deem- er, my Re- deem- er, my Re-|
 A,2 [A,,A,]>[A,,A,] [A,,A,]2 (A,G,) | [D,F,]2 [D,F,]>[D,A,] [D,D]3 [D,D] | %15
w: deem- er has come! * *||
 [G,D]2 [G,D]>[E,A,] !fermata![D,A,]2 [F,A,][G,B,] | A,4 [A,,A,]2 [A,,G,]2 | [D,F,]6 |] %18
w: |||
V:4
 x2 | x8 | x8 | x8 | x8 | x8 | B,2 F,>F, B,2 x2 | x8 | x6 || x2 | x10 | x10 | x8 | A,2 x2 A,,2 x2 | %14
 x8 | x8 | A,4 x4 | x6 |] %18

